icons/actions/toolbar/draw-text.svg

<?xml version="1.0" encoding="UTF-8" standalone="no"?>
<!-- Created with Inkscape (http://www.inkscape.org/) -->

<svg
   xmlns:dc="http://purl.org/dc/elements/1.1/"
   xmlns:cc="http://creativecommons.org/ns#"
   xmlns:rdf="http://www.w3.org/1999/02/22-rdf-syntax-ns#"
   xmlns:svg="http://www.w3.org/2000/svg"
   xmlns="http://www.w3.org/2000/svg"
   xmlns:sodipodi="http://sodipodi.sourceforge.net/DTD/sodipodi-0.dtd"
   xmlns:inkscape="http://www.inkscape.org/namespaces/inkscape"
   width="22"
   height="22"
   id="svg3760"
   version="1.1"
   inkscape:version="0.91+devel r"
   sodipodi:docname="draw-text.svg">
  <defs
     id="defs3762" />
  <sodipodi:namedview
     id="base"
     pagecolor="#ffffff"
     bordercolor="#666666"
     borderopacity="1.0"
     inkscape:pageopacity="0.0"
     inkscape:pageshadow="2"
     inkscape:zoom="16.631103"
     inkscape:cx="7.355043"
     inkscape:cy="13.340823"
     inkscape:document-units="px"
     inkscape:current-layer="layer1"
     showgrid="true"
     fit-margin-top="0"
     fit-margin-left="0"
     fit-margin-right="0"
     fit-margin-bottom="0"
     inkscape:window-width="1366"
     inkscape:window-height="670"
     inkscape:window-x="-4"
     inkscape:window-y="29"
     inkscape:window-maximized="1"
     inkscape:showpageshadow="false">
    <sodipodi:guide
       position="-1,23"
       orientation="24,0"
       id="guide4115" />
    <sodipodi:guide
       position="-1,-1"
       orientation="0,24"
       id="guide4117" />
    <sodipodi:guide
       position="23,-1"
       orientation="-24,0"
       id="guide4119" />
    <sodipodi:guide
       position="23,23"
       orientation="0,-24"
       id="guide4121" />
    <sodipodi:guide
       position="2,20"
       orientation="18,0"
       id="guide4123" />
    <sodipodi:guide
       position="2,2"
       orientation="0,18"
       id="guide4125" />
    <sodipodi:guide
       position="20,2"
       orientation="-18,0"
       id="guide4127" />
    <sodipodi:guide
       position="20,20"
       orientation="0,-18"
       id="guide4129" />
    <sodipodi:guide
       position="3,19"
       orientation="16,0"
       id="guide4131" />
    <sodipodi:guide
       position="3,3"
       orientation="0,16"
       id="guide4133" />
    <sodipodi:guide
       position="19,3"
       orientation="-16,0"
       id="guide4135" />
    <sodipodi:guide
       position="19,19"
       orientation="0,-16"
       id="guide4137" />
    <inkscape:grid
       type="xygrid"
       id="grid4139"
       originx="-0.99998557"
       originy="-1.0000118" />
  </sodipodi:namedview>
  <metadata
     id="metadata3765">
    <rdf:RDF>
      <cc:Work
         rdf:about="">
        <dc:format>image/svg+xml</dc:format>
        <dc:type
           rdf:resource="http://purl.org/dc/dcmitype/StillImage" />
        <dc:title></dc:title>
      </cc:Work>
    </rdf:RDF>
  </metadata>
  <g
     inkscape:label="Capa 1"
     inkscape:groupmode="layer"
     id="layer1"
     transform="translate(-551.28571,-607.64789)">
    <path
       style="opacity:1;fill:#4d4d4d;fill-opacity:1;stroke:none"
       d="m 5,4 0,14 -1,0 0,1 1,0 0,1 1,0 0,-1 12,0 0,1 1,0 0,-1 1,0 0,-1 -1,0 L 19,4 18,4 18,18 6,18 6,4 5,4 Z m 2,1 0,2 4,0 0,10 2,0 0,-10 4,0 0,-2 -10,0 z"
       transform="translate(550.28572,606.6479)"
       id="rect4112"
       inkscape:connector-curvature="0" />
  </g>
</svg>

<?xml version="1.0" encoding="UTF-8" standalone="no"?>
<!-- Created with Inkscape (http://www.inkscape.org/) -->

<svg
   xmlns:dc="http://purl.org/dc/elements/1.1/"
   xmlns:cc="http://creativecommons.org/ns#"
   xmlns:rdf="http://www.w3.org/1999/02/22-rdf-syntax-ns#"
   xmlns:svg="http://www.w3.org/2000/svg"
   xmlns="http://www.w3.org/2000/svg"
   xmlns:sodipodi="http://sodipodi.sourceforge.net/DTD/sodipodi-0.dtd"
   xmlns:inkscape="http://www.inkscape.org/namespaces/inkscape"
   width="24"
   height="24"
   id="svg3760"
   version="1.1"
   inkscape:version="0.48+devel r"
   sodipodi:docname="draw-text.svg">
  <defs
     id="defs3762" />
  <sodipodi:namedview
     id="base"
     pagecolor="#ffffff"
     bordercolor="#666666"
     borderopacity="1.0"
     inkscape:pageopacity="0.0"
     inkscape:pageshadow="2"
     inkscape:zoom="23.519932"
     inkscape:cx="8.3895802"
     inkscape:cy="13.496396"
     inkscape:document-units="px"
     inkscape:current-layer="layer1"
     showgrid="true"
     fit-margin-top="0"
     fit-margin-left="0"
     fit-margin-right="0"
     fit-margin-bottom="0"
     inkscape:window-width="1366"
     inkscape:window-height="668"
     inkscape:window-x="-2"
     inkscape:window-y="23"
     inkscape:window-maximized="1"
     inkscape:showpageshadow="false">
    <sodipodi:guide
       position="-1.4433594e-05,24.000012"
       orientation="24,0"
       id="guide4115" />
    <sodipodi:guide
       position="-1.4433594e-05,1.1816406e-05"
       orientation="0,24"
       id="guide4117" />
    <sodipodi:guide
       position="23.999986,1.1816406e-05"
       orientation="-24,0"
       id="guide4119" />
    <sodipodi:guide
       position="23.999986,24.000012"
       orientation="0,-24"
       id="guide4121" />
    <sodipodi:guide
       position="2.9999856,21.000012"
       orientation="18,0"
       id="guide4123" />
    <sodipodi:guide
       position="2.9999856,3.0000118"
       orientation="0,18"
       id="guide4125" />
    <sodipodi:guide
       position="20.999986,3.0000118"
       orientation="-18,0"
       id="guide4127" />
    <sodipodi:guide
       position="20.999986,21.000012"
       orientation="0,-18"
       id="guide4129" />
    <sodipodi:guide
       position="3.9999856,20.000012"
       orientation="16,0"
       id="guide4131" />
    <sodipodi:guide
       position="3.9999856,4.0000118"
       orientation="0,16"
       id="guide4133" />
    <sodipodi:guide
       position="19.999986,4.0000118"
       orientation="-16,0"
       id="guide4135" />
    <sodipodi:guide
       position="19.999986,20.000012"
       orientation="0,-16"
       id="guide4137" />
    <inkscape:grid
       type="xygrid"
       id="grid4139" />
  </sodipodi:namedview>
  <metadata
     id="metadata3765">
    <rdf:RDF>
      <cc:Work
         rdf:about="">
        <dc:format>image/svg+xml</dc:format>
        <dc:type
           rdf:resource="http://purl.org/dc/dcmitype/StillImage" />
        <dc:title />
      </cc:Work>
    </rdf:RDF>
  </metadata>
  <g
     inkscape:label="Capa 1"
     inkscape:groupmode="layer"
     id="layer1"
     transform="translate(-550.28572,-606.6479)">
    <path
       style="opacity:1;fill:#4d4d4d;fill-opacity:1;stroke:none"
       d="M 5 4 L 5 18 L 4 18 L 4 19 L 5 19 L 5 20 L 6 20 L 6 19 L 18 19 L 18 20 L 19 20 L 19 19 L 20 19 L 20 18 L 19 18 L 19 4 L 18 4 L 18 18 L 6 18 L 6 4 L 5 4 z M 7 5 L 7 7 L 11 7 L 11 17 L 13 17 L 13 7 L 17 7 L 17 5 L 7 5 z "
       transform="translate(550.28572,606.6479)"
       id="rect4112" />
  </g>
</svg>
